X:3028
T:Congress Reel, The
R:Reel
O:Ireland
Z:Paul Hardy's Session Tunebook 2015 (see www.paulhardy.net). Creative Commons cc by-nc-sa licenced.
M:4/4
L:1/8
Q:1/4=140
K:ADor
(3Bcd|"Am"eAAG A2 (3Bcd|eAaf "G"gedg|"Am"eA (3ABA eAcA|"G"BdGB dGBd|
"Am"eAAG A2 (3Bcd|eAaf "G"gedB|"F"cBcd "G"eged|"E7"ceBe "Am"A2:|
|:(3Bcd|"Am"eaa^g a3=g|eaaf "G"gedg|egdg egdg|"Am"eAaf "E7"gedg|
"Am"eaa^g a3=g|eaaf "G"gedB|"F"cBcd "G"(3efg ed|"E7"ceBe "Am"A2:|

